X:220987021295423
T:10-6-6-8-6-6-6-2-10-2-2-8-6-6-8-9
%%setfont-1 Courier-Bold 8
T:$1K.516f::98:74:163:53:80:97:36:30:65:121:26:175:76:136:89:111::$0
T:$1Perm. No.: 220987021295423$0
M:3/8
L:1/8
Q:1/8=111
%%staves [1 2]
V:1 clef=treble
V:2 clef=bass
K:C
%1
[V:1]|: cGe |\
[V:2]|: [E,/C,/]G,/[E,/C,/]G,/[E,/C,/]G,/ |\
%2
[V:1] c'/b/c'/g/e/c/ |\
[V:2] E,2z & C,2x |\
%3
[V:1] g/^f/g/d/B/G/ |\
[V:2] [D,2B,,2]z |\
%4
[V:1] [ec][e/c/][f/d/][ge] |\
[V:2] C,2z |\
%5
[V:1] d!turn!A^f |\
[V:2] C,2z |\
%6
[V:1] g/^f/g/d/B/G/ |\
[V:2] [D,2B,,2][G,B,,] |\
%7
[V:1] A/e/d/g/^f/a/ \
[V:2] C,D,D,, \
%8a
[V:1]|1 [g2d2B2G2]z :|2
[V:2]|1 G,,G,/=F,/E,/D,/ :|2
%8b
[V:1] [g2d2B2G2]z |:\
[V:2] G,,B,/G,/^F,/E,/ |:\
%9
[V:1] d/A/d^f |\
[V:2] ^F,2z & D,2x |\
%10
[V:1] gb/g/d |\
[V:2] [G,2B,,2]z |\
%11
[V:1] [ec][ec][ec] |\
[V:2] C,/E,/G,/E,/C/C,/ |\
%12
[V:1] e/c/B/d/g |\
[V:2] G,G,,z |\
%13
[V:1] c'/b/c'/g/e/c/ |\
[V:2] [E,2C,2][G,C,] |\
%14
[V:1] c'/b/c'/g/e/c/ |\
[V:2] [E,2C,2]z |\
%15
[V:1] f/e/dg |\
[V:2] F,/E,/D,G, |\
%16
[V:1] c2z :|]
[V:2] C,G,,C,, :|]
